X:1
T: Mrs Captain McBarnet of Balachron's Strathspey
C:William Marshall
R:Strathspey
Q: 128
K:Eb
M:4/4
L:1/16
|:A2|G2F2 E2G2 B2e2 G2E2|edcB c2d2 e2f2 d2B2|c2E2 G2B2 edcB G2E2|F2B,2 EDCB, E4 E2A2|
G2F2 E2G2 B2e2 G2E2|edcB c2d2 e2f2 d2B2|c2E2 G2B2 edcB G2E2|F2B,2 EDCB, E4 E2A,2|
G,2A,2 B,2G,2 E2B,2 G2E2|B,2D2 F2D2 A2F2 B2G2|E2F2 G2A2 B2c2 d2e2|f3g fedc B2A2 G2F2|
G,2A,2 B,2G,2 E2B,2 G2E2|B,2D2 F2D2 A2F2 B2G2|E3g fedc B2A2 G2E2|F3B, EDCB, E4 E2:|
